!!!COM: Haydn, Franz Joseph
!!!OTL: String Quartet in D Minor
!!!OPS: Opus 76
!!!ONM: No. 2
!!!OMD: Andante o pi&ugrave; tosto allegretto
!!!OMV: 2
!!!SCT: H III:76
!!!SCA: Thematisch-bibliographisches Werkevererzeichnis (A. van Hoboken)
!!!YOR: Trautwein Edition
!!!ENC: Frances Bennion
!!!CDT: 1732/3/31/-1809/5/31/
!!!CNT: Oesterreich
!!!YEC: Copyright (c) 1994, 2000 Center for Computer Assisted Research in the Humanities
!!!YEM: Rights to all derivative editions reserved.
!!!YEM: Refer to licensing agreement for further details.
!!!YEN: United States of America
**kern	**kern	**kern	**kern
*k[f#c#]	*k[f#c#]	*k[f#c#]	*k[f#c#]
*D:	*D:	*D:	*D:
*clefF4	*clefC3	*clefF	*clefF
*M6/8	*M6/8	*M6/8	*M6/8
2r	2r	2r	3..r
8r	8r	8r	.
.	.	.	24r
8r	8r	8r	8a
=1	=1	=1	=1
8D	8d	8f# 8A	8f#
8r	8r	8r	8f#
8BB	8d	8g	16g
.	.	.	32f#
.	.	.	32g
8FF#	8d	8a	4a
8r	8r	8r	.
8GG	8d	8b 8d	8b
=2	=2	=2	=2
8AA	8A	8e 8c#	4e
8r	8r	8r	.
8E	8d	8B 8g#	16d
.	.	.	32c#
.	.	.	32B
8AA	8c#	8A 8a	4A
8A	4r	4r	.
8r	.	.	8a
=3	=3	=3	=3
8D	8d	8f# 8A	8f#
8r	8r	8r	8f#
8BB	8d	8g	16g
.	.	.	32f#
.	.	.	32g
8FF#	8d	8a	4a
8r	8r	8r	.
8GG	8E	8b	16.b
.	.	.	32ee
=4	=4	=4	=4
8AA	8F#	8f#	8dd
8AA	8G	8cc# 8e	8.cc#
8r	8r	8r	.
.	.	.	32b
.	.	.	32cc#
8D	8F#	8dd 8f#	8dd
8DD	8r	8r	8r
8r	8r	8r	16.ff#
.	.	.	32dd
=5	=5	=5	=5
4d	8d	4f#	8b
.	8f#	.	8b
8A#	8f#	8e	16cc#
.	.	.	32b
.	.	.	32cc#
8B	4f#	4d	8.dd
8BB	.	.	.
.	.	.	32ee
.	.	.	32ff#
8r	8r	8r	32ee
.	.	.	32dd
.	.	.	32cc#
.	.	.	32b
=6	=6	=6	=6
4E	4d	4B	16a
.	.	.	16g#
.	.	.	8g#
8G#	16B	8b	8ee
.	16e	.	.
4A	4e	8b	8dd
.	.	8a	8cc#
8r	8r	8r	16.ee
.	.	.	32cc#
=7	=7	=7	=7
2.r	8c#	8e	8a
.	8c#	8e	8a
.	8r	8r	16.aa
.	.	.	32ff#
.	8f#	8a	8dd
.	8f#	8a	8dd
.	8r	8r	16.ff#
.	.	.	32dd
=8	=8	=8	=8
4.r	8d	8f#	8b
.	8d	8f#	8b
.	8r	8r	16.ff#
.	.	.	32dd
4D	4f#	4f#	8b
.	.	.	8b
8DD	[8F#	[8a	8b#
=9	=9	=9	=9
4.CC#	8F#]	8a]	8cc#
.	8c#	8f#	16.a
.	.	.	32f#
.	8B	16.e#	16.g#
.	.	32g#	32e#
8FF#	4A	4f#	4f#
8F#	.	.	.
8r	8r	8r	16.cc#
.	.	.	32a
=10	=10	=10	=10
8F#	8A	8c#	8f#
8F#	8A	8c#	8f#
8r	8r	8r	32cc#
.	.	.	32a
.	.	.	32cc#
.	.	.	32a
8F#	8A	8c#	8f#
8F#	8A	8c#	8f#
8r	8r	8r	8a
=11	=11	=11	=11
2.r	2.r	2.r	8f#
.	.	.	8f#
.	.	.	8a
.	.	.	8f#
.	.	.	8f#
.	.	.	8a
=12	=12	=12	=12
4D	4A	2.d	8f#
.	.	.	8f#
8BB	8B	.	16g
.	.	.	32f#
.	.	.	32g
4FF#	4A	.	4a
8GG	[8E	.	8b
=13	=13	=13	=13
4AA	8E]	8c#	4e
.	8c#	8e	.
8E	8d	8g#	16d
.	.	.	32c#
.	.	.	32B
8A	8c#	8a	16A
.	.	.	32B
.	.	.	32c#
4r	4r	4r	32d
.	.	.	32e
.	.	.	32f#
.	.	.	32g
.	.	.	32a
.	.	.	32b
.	.	.	32a
.	.	.	32g
=14	=14	=14	=14
4D	8d	2.d	8f#
.	8A	.	8f#
8BB	8B	.	16g
.	.	.	32f#
.	.	.	32g
4FF#	8A	.	8.a
.	8f#	.	.
.	.	.	16a#
8GG	8e	.	16.b
.	.	.	32ee
=15	=15	=15	=15
8AA	8a	8f#	8dd
4AA	8.e	4g	8.cc#
.	32d	.	32b
.	32e	.	32cc#
8D	4f#	4f#	4dd
8DD	.	.	.
8r	8r	8r	16.aa
.	.	.	32ff
=16	=16	=16	=16
2.r	2.r	2.r	8dd
.	.	.	8dd
.	.	.	16.aa
.	.	.	32ff
.	.	.	8dd
.	.	.	8dd
.	.	.	16.ff
.	.	.	32dd
=17	=17	=17	=17
8BB-	8f	8d	8b-
8BB-	8f	8d	8b-
8BB-	8f	8d	8b-
4F	4c	4e-	8b-
.	.	.	8a
8r	8r	8r	16.ee-
.	.	.	32cc
=18	=18	=18	=18
8F	8c	8e-	8a
8F	8c	8e-	8a
8F	8c	8e-	8a
4BB-	8c	8e-	8a
.	8d	8d	8b-
8r	8r	8r	16.dd
.	.	.	32b-
=19	=19	=19	=19
8A	8F	8cc	8ff
8A	8f	8cc	8ff
8F	8a	8cc	8ff
8C	8g	8ee 8b-	8gg 8cc
8C	8e	8ee 8b-	8gg 8cc
8C	8c	8ee 8b-	8cc 8gg
=20	=20	=20	=20
4F	4f 4A	4a 4ff	[12..aa
.	.	.	96aa]
.	.	.	32ff
.	.	.	32gg
.	.	.	32aa
2r	2r	2r	32bb-
.	.	.	32ccc
.	.	.	32ddd
.	.	.	32eee
.	.	.	8fff
.	.	.	8r
.	.	.	16.ff
.	.	.	32dd
=21	=21	=21	=21
8BB-	8f	8d	8b-
8BB-	8f	8d	8b-
8BB-	8f	8d	8b-
4F	4c	4e-	8b-
.	.	.	8a
8r	8r	8r	16.ee-
.	.	.	32cc
=22	=22	=22	=22
8F	8c	8e-	8a
8F	8c	8e-	8a
8F	8c	8e-	8a
4BB-	8c	8e-	8a
.	8d	8d	8b-
8r	8r	8r	16.dd
.	.	.	32b-
=23	=23	=23	=23
8AA	8F	8cc	8ff
8AA	8f	8cc	8ff
8AA	8a	8cc	8ff
8AA-	8F#	8cc 8e-	8ff# 8cc
8AA-	8c	8cc 8e-	8ff# 8cc
8AA-	8c	8cc 8e-	8ff# 8cc
=24	=24	=24	=24
4GG	4d	4g 4b	8.b 8.gg
.	.	.	32aa
.	.	.	32bb
2r	2r	4.r	32ccc
.	.	.	32ddd
.	.	.	32eee
.	.	.	32fff#
.	.	.	8ggg
.	.	.	8r
.	.	16.dd	8r
.	.	32b	.
=25	=25	=25	=25
4G	4d 4B	8g	4r
.	.	8g	.
8r	8r	16.dd	8r
.	.	32b	.
4GG	4B	8f	4aa-
.	.	8f	.
8F	8d	8b	32gg
.	.	.	32ff
.	.	.	32ee-
.	.	.	32dd
=26	=26	=26	=26
8E-	4g	8cc	8cc
8C	.	8e-	8cc
16.GG	8B	8f	8dd
32EE-	.	.	.
8CC	8c	8e-	4ee-
8CC	4r	4r	.
8r	.	.	16.g
.	.	.	32e-
=27	=27	=27	=27
2.r	2.r	2.r	8c
.	.	.	8c
.	.	.	16.cc
.	.	.	32g
.	.	.	8e-
.	.	.	8e-
.	.	.	16.ee-
.	.	.	32cc
=28	=28	=28	=28
8C	8e-	8f#	8a
4r	4r	4r	8a
.	.	.	16.cc
.	.	.	32a
8C	8E-	8A	8f#
4r	4r	4r	8f#
.	.	.	8a
=29	=29	=29	=29
8C	8E-	8A	8f#
4r	4r	4r	8f#
.	.	.	8a
8C	8c	8A	8f#
4r	4r	4r	8f#
.	.	.	8a
=30	=30	=30	=30
2C#	2F#	2A	8f#
.	.	.	8f#
.	.	.	8a
.	.	.	8f#
4r	4r	4r	8f#
.	.	.	8a
=31	=31	=31	=31
4.r	4.r	4.r	8f#
.	.	.	8f#
.	.	.	8a
8C#	8A	8e	8g
4r	4r	4r	8g
.	.	.	8a
=32	=32	=32	=32
4D	4A	2.d	8f#
.	.	.	8f#
8BB	8B	.	16g
.	.	.	32f#
.	.	.	32g
4FF#	4A	.	4a
8GG	[8E	.	8b
=33	=33	=33	=33
4AA	8E]	8c#	4e
.	8c#	8e	.
8E	8d	8g#	16d
.	.	.	32c#
.	.	.	32B
8A	8c#	8a	16A
.	.	.	32B
.	.	.	32c#
4r	4r	4r	32d
.	.	.	32e
.	.	.	32f#
.	.	.	32g
.	.	.	32a
.	.	.	32b
.	.	.	32a
.	.	.	32g
=34	=34	=34	=34
4D	8d	2.d	8f#
.	8A	.	8f#
8BB	8B	.	16g
.	.	.	32f#
.	.	.	32g
4FF#	8A	.	8.a
.	8f#	.	.
.	.	.	16a#
8GG	8e	.	16.b
.	.	.	32ee
=35	=35	=35	=35
8AA	8a	8f#	8dd
4AA	8.e	4g	8.cc#
.	32d	.	32b
.	32e	.	32cc#
8D	8f#	8f#	8dd
8DD	4r	4r	8r
8r	.	.	8a
=36	=36	=36	=36
8D	8d	8A 8f#	32f#
.	.	.	32d
.	.	.	32A
.	.	.	32d
8r	8r	8r	32f#
.	.	.	32d
.	.	.	32f#
.	.	.	32d
8BB	8d	8g	32g
.	.	.	32d
.	.	.	32g
.	.	.	32d
8FF#	8d	8a 8d	32a
.	.	.	32f#
.	.	.	32d
.	.	.	32f#
8r	8r	8r	32a
.	.	.	32f#
.	.	.	32d
.	.	.	32dd
8GG	8d	8b 8d	32cc#
.	.	.	32b
.	.	.	32a
.	.	.	32g
=37	=37	=37	=37
8AA	8A	8c# 8e	32f#
.	.	.	32e
.	.	.	32f#
.	.	.	32g#
8r	8r	8r	32a
.	.	.	32b
.	.	.	32cc#
.	.	.	32dd
8EE	8d	8g# 8B	32ee
.	.	.	32dd
.	.	.	32b
.	.	.	32g#
8AA	8c#	8A 8a 8e	32b
.	.	.	32a
.	.	.	32g#
.	.	.	32a
8A	4r	4r	32g#
.	.	.	32a
.	.	.	32g#
.	.	.	32a
8r	.	.	32g
.	.	.	32a
.	.	.	32g
.	.	.	32a
=38	=38	=38	=38
8D	8d	8A 8f#	32g
.	.	.	32f#
.	.	.	32e
.	.	.	32d
8r	8r	8r	32c#
.	.	.	32d
.	.	.	32e
.	.	.	32f#
8BB	8d	8g	32g
.	.	.	32a
.	.	.	32b
.	.	.	32cc#
8FF#	8d	8a	32dd
.	.	.	32ee
.	.	.	32ff#
.	.	.	32gg
8r	8r	8r	32gg#
.	.	.	32aa
.	.	.	32gg#
.	.	.	32aa
8GG	8E	8b	32aa#
.	.	.	32bb
.	.	.	32aa#
.	.	.	32bb
=39	=39	=39	=39
8AA	8F#	8a	32aa
.	.	.	32bb
.	.	.	32aa
.	.	.	32bb
8r	8r	8r	32ccc#
.	.	.	32ddd
.	.	.	32eee
.	.	.	32fff#
8AA	8A	8cc# 8e	32ggg
.	.	.	32fff#
.	.	.	32ggg
.	.	.	32eee
8D	8A	8f# 8dd	8ddd
8DD	4r	4r	8r
8r	.	.	16.ff#
.	.	.	32dd
=40	=40	=40	=40
4d	8d	8r	32b
.	.	.	32ff#
.	.	.	32dd
.	.	.	32cc#
.	8f#	8f#	32b
.	.	.	32ff#
.	.	.	32ee
.	.	.	32dd
8A#	8g	16e	32cc#
.	.	.	32ee
.	.	16c#	32gg
.	.	.	32ee
4B	8f#	8d	32dd
.	.	.	32ff#
.	.	.	32dd
.	.	.	32cc#
.	4r	4r	32b
.	.	.	32ff#
.	.	.	32gg
.	.	.	32ff#
8r	.	.	32ee
.	.	.	32dd
.	.	.	32cc#
.	.	.	32b
=41	=41	=41	=41
4E	4d	4B	32a
.	.	.	32g#
.	.	.	32b
.	.	.	32a
.	.	.	32cc#
.	.	.	32b
.	.	.	32dd
.	.	.	32cc#
8GG#	16B	8b	32ee
.	.	.	32dd
.	16e	.	32ff#
.	.	.	32ee
4AA	4e	8b	8dd
.	.	8a	8cc#
8r	8r	8r	16.ee
.	.	.	32cc#
=42	=42	=42	=42
2.r	8c#	8e	32a
.	.	.	32g#
.	.	.	32a
.	.	.	32cc#
.	8c#	8e	32a
.	.	.	32cc#
.	.	.	32ee
.	.	.	32cc#
.	8r	8r	32a
.	.	.	32aa
.	.	.	32gg
.	.	.	32ee
.	8f#	8a	32dd
.	.	.	32cc#
.	.	.	32dd
.	.	.	32ff#
.	8f#	8a	32dd
.	.	.	32ff#
.	.	.	32aa
.	.	.	32ff#
.	8r	8r	32gg
.	.	.	32ff#
.	.	.	32ee
.	.	.	32dd
=43	=43	=43	=43
4.r	8d	8f#	32cc#
.	.	.	32b
.	.	.	32a#
.	.	.	32b
.	8d	8f#	32gg
.	.	.	32ff#
.	.	.	32ee
.	.	.	32dd
.	8r	8r	32cc#
.	.	.	32b
.	.	.	32a#
.	.	.	32b
4D	[4.F#	4B	32gg
.	.	.	32ff#
.	.	.	32ee
.	.	.	32dd
.	.	.	32cc#
.	.	.	32b
.	.	.	32a#
.	.	.	32b
8DD	.	[8a	16b#
.	.	.	16b#
=44	=44	=44	=44
4.CC#	8F#]	8.a]	32cc#
.	.	.	32ff#
.	.	.	32aa
.	.	.	32gg#
.	8c#	.	32ff#
.	.	.	32cc#
.	.	16f#	32a
.	.	.	32f#
.	8B	16e#	32g#
.	.	.	32b
.	.	16g#	32g#
.	.	.	32e#
8FF#	8A	8f#	8f#
8F#	4r	4r	8r
8r	.	.	16.cc#
.	.	.	32a
=45	=45	=45	=45
8F#	8A	8c#	32f#
.	.	.	32c#
.	.	.	32A
.	.	.	32c#
8F#	8A	8c#	32A
.	.	.	32c#
.	.	.	32f#
.	.	.	32c#
8r	8r	8r	32a
.	.	.	32f#
.	.	.	32cc#
.	.	.	32a
8F#	8A	8c#	32f#
.	.	.	32c#
.	.	.	32A
.	.	.	32c#
8F#	8A	8c#	32A
.	.	.	32c#
.	.	.	32f#
.	.	.	32c#
8r	8r	8r	32a
.	.	.	32f#
.	.	.	32cc#
.	.	.	32a
=46	=46	=46	=46
2.r	2.r	2.r	32f#
.	.	.	32c#
.	.	.	32A
.	.	.	32c#
.	.	.	32f#
.	.	.	32c#
.	.	.	32A
.	.	.	32c#
.	.	.	32a
.	.	.	32c#
.	.	.	32A
.	.	.	32c#
.	.	.	32f#
.	.	.	32c#
.	.	.	32A
.	.	.	32c#
.	.	.	32f#
.	.	.	32c#
.	.	.	32A
.	.	.	32c#
.	.	.	32a
.	.	.	32c#
.	.	.	32A
.	.	.	32c#
=47	=47	=47	=47
8D	8d	8f# 8A	32f#
.	.	.	32d
.	.	.	32A
.	.	.	32d
8r	8r	8r	32f#
.	.	.	32d
.	.	.	32f#
.	.	.	32d
8BB	8d	8g	32g
.	.	.	32d
.	.	.	32g
.	.	.	32d
8FF#	8d	8a 8d	32a
.	.	.	32f#
.	.	.	32d
.	.	.	32f#
8r	8r	8r	32a
.	.	.	32f#
.	.	.	32d
.	.	.	32dd
8GG	8d	8b 8d	32cc#
.	.	.	32b
.	.	.	32a
.	.	.	32g
=48	=48	=48	=48
8AA	8A	8c# 8e	32f#
.	.	.	32e
.	.	.	32f#
.	.	.	32g#
8r	8r	8r	32a
.	.	.	32b
.	.	.	32cc#
.	.	.	32dd
8EE	8d	8g# 8B	32ee
.	.	.	32dd
.	.	.	32b
.	.	.	32g#
8AA	8c#	8a 8A 8e	32b
.	.	.	32a
.	.	.	32g#
.	.	.	32a
8A	4r	4r	32g#
.	.	.	32a
.	.	.	32g#
.	.	.	32a
8r	.	.	32g
.	.	.	32a
.	.	.	32g
.	.	.	32a
=49	=49	=49	=49
4D	8F#	2.d	32g
.	.	.	32f#
.	.	.	32e
.	.	.	32d
.	8A	.	32c#
.	.	.	32d
.	.	.	32e
.	.	.	32f#
8BB	8B	.	32g
.	.	.	32a
.	.	.	32b
.	.	.	32cc#
4FF#	8A	.	32dd
.	.	.	32ee
.	.	.	32ff#
.	.	.	32gg
.	8f#	.	32gg#
.	.	.	32aa
.	.	.	32gg#
.	.	.	32aa
8GG	8g	.	32aa#
.	.	.	32bb
.	.	.	32aa#
.	.	.	32bb
=50	=50	=50	=50
4AA	4d	4f#	32aa
.	.	.	32bb
.	.	.	32aa
.	.	.	32bb
.	.	.	32ccc#
.	.	.	32ddd
.	.	.	32eee
.	.	.	32fff#
8A	16a	8cc#	32ggg
.	.	.	32fff#
.	16g	.	32ggg
.	.	.	32eee
4B	4f#	4dd	4ddd
8r	8r	8r	16.ddd
.	.	.	32bb
=51	=51	=51	=51
2.r	8b	32cc#	8gg
.	.	32dd	.
.	.	32cc#	.
.	.	32dd	.
.	8b	32cc#	8gg
.	.	32dd	.
.	.	8.r	.
.	8r	.	16.bb
.	.	.	32gg
.	8a	32cc#	8ff#
.	.	32dd	.
.	.	32cc#	.
.	.	32dd	.
.	8a	32cc#	8ff#
.	.	32dd	.
.	.	8.r	.
.	8r	.	16.aa
.	.	.	32ff#
=52	=52	=52	=52
2.r	8g	32dd	8ee
.	.	32cc#	.
.	.	32dd	.
.	.	32cc#	.
.	8g	16dd	8ee
.	.	16dd	.
.	8a	16dd	8ff#
.	.	16dd	.
.	4b	4dd	4gg
.	8r	8r	16.bb
.	.	.	32gg
=53	=53	=53	=53
2.r	8a	32cc#	8ff#
.	.	32dd	.
.	.	32cc#	.
.	.	32dd	.
.	8a	32cc#	8ff#
.	.	32dd	.
.	.	8.r	.
.	8r	.	16.aa
.	.	.	32ff#
.	8g	32dd	8ee
.	.	32cc#	.
.	.	32dd	.
.	.	32cc#	.
.	8g	16dd	8ee
.	.	16dd	.
.	8g#	16dd	8ee#
.	.	16dd	.
=54	=54	=54	=54
2r	[2.a	[2.dd	[2.ff#
8r	.	.	.
16.AA	.	.	.
32D	.	.	.
=55	=55	=55	=55
8F#	4a]	4dd]	4ff#]
8F#	.	.	.
16.AA	4.g	4.cc#	4.ee
32E	.	.	.
8G	.	.	.
8G	.	.	.
16.AA	[8f	[8b	[8dd
32D	.	.	.
=56	=56	=56	=56
8G#	4f]	4b]	4dd]
8G#	.	.	.
16.AA	4e	4g	4cc#
32G	.	.	.
8B-	.	.	.
8A	8g	8e	8cc#
8G	8G	8e	8cc#
=57	=57	=57	=57
[2F#	[2c	[2A	6cc
.	.	.	24a
.	.	.	24f#
.	.	.	24d#
.	.	.	24f#
.	.	.	24a
.	.	.	4cc
8F#]	8c]	8A] 8d#	.
16.GG	8r	8r	8r
32BB	.	.	.
=58	=58	=58	=58
8E	2r	8r	8r
8E	.	8r	8r
4.r	.	32d#	32ff#
.	.	32e	32gg
.	.	32d#	32ff#
.	.	32e	32gg
.	.	8g	8bb
.	8r	8g	8bb
32DD#	32f#	8r	8r
32EE	32g	.	.
32DD#	32f#	.	.
32EE	32g	.	.
=59	=59	=59	=59
8GG	8b	8r	8r
8GG	8b	8r	8r
2r	2r	32d#	32ff#
.	.	32e	32gg
.	.	32d#	32ff#
.	.	32e	32gg
.	.	8g	8bb
.	.	4r	16r
.	.	.	16bb
.	.	.	32aa
.	.	.	32gg
.	.	.	32ff#
.	.	.	32ee
=60	=60	=60	=60
8A	8d	8f#	8dd
4r	4r	4r	16r
.	.	.	16bb
.	.	.	32aa
.	.	.	32gg
.	.	.	32ff#
.	.	.	32ee
8A	8d	8f#	8dd
4r	4r	4r	16r
.	.	.	16b
.	.	.	32a
.	.	.	32g
.	.	.	32f#
.	.	.	32e
=61	=61	=61	=61
8A	8d	8f#	8d
4r	4r	4r	16r
.	.	.	32bb
.	.	.	32aa
.	.	.	32gg
.	.	.	32ff#
.	.	.	32ee
.	.	.	32dd
4.AA	4.G	4.c# 4.e	32cc#
.	.	.	32b
.	.	.	32a
.	.	.	32g
.	.	.	32f#
.	.	.	32e
.	.	.	32d
.	.	.	32c#
.	.	.	32B
.	.	.	32A
.	.	.	32B
.	.	.	32c#
=62	=62	=62	=62
8DD	32F#	8f# 8d	8d
.	32A	.	.
.	32d	.	.
.	32A	.	.
4DD	32F#	8r	8r
.	32A	.	.
.	32F#	.	.
.	32A	.	.
.	32F#	8f#	8dd
.	32A	.	.
.	32F#	.	.
.	32A	.	.
8DD	32G	8e	8cc#
.	32A	.	.
.	32c#	.	.
.	32A	.	.
4DD	32G	8r	8r
.	32A	.	.
.	32G	.	.
.	32A	.	.
.	32G	8cc#	8ee
.	32A	.	.
.	32G	.	.
.	32A	.	.
=63	=63	=63	=63
8DD	32F#	8dd	8dd
.	32A	.	.
.	32d	.	.
.	32A	.	.
4DD	32F#	8r	8r
.	32A	.	.
.	32F#	.	.
.	32A	.	.
.	32F#	8d	8dd
.	32A	.	.
.	32F#	.	.
.	32A	.	.
8DD	32G	8c#	8a
.	32A	.	.
.	32c#	.	.
.	32A	.	.
4DD	32G	8r	8r
.	32A	.	.
.	32G	.	.
.	32A	.	.
.	32G	8c#	8a
.	32A	.	.
.	32G	.	.
.	32A	.	.
=64	=64	=64	=64
8DD	32F#	8d	8f#
.	32A	.	.
.	32d	.	.
.	32A	.	.
4DD	32F#	8r	8r
.	32A	.	.
.	32F#	.	.
.	32A	.	.
.	32F#	8f#	8dd
.	32A	.	.
.	32F#	.	.
.	32A	.	.
8DD	32G	8e	32cc#
.	32A	.	32dd
.	32c#	.	32ee
.	32A	.	32ff#
4DD	32G	8r	32gg
.	32A	.	32aa
.	32G	.	32bb
.	32A	.	32ccc#
.	32G	16.cc#	32ddd
.	32A	.	32eee
.	32G	.	32fff#
.	32A	32ee	32ggg
=65	=65	=65	=65
8DD	32F#	8dd	8aaa
.	32A	.	.
.	32d	.	.
.	32A	.	.
4DD	32F#	8r	8r
.	32A	.	.
.	32F#	.	.
.	32A	.	.
.	32F#	8d	8r
.	32A	.	.
.	32F#	.	.
.	32A	.	.
8DD	32G	4.c#	32a
.	32A	.	32b
.	32c#	.	32cc#
.	32A	.	32dd
4DD	32G	.	32ee
.	32A	.	32ff#
.	32G	.	32gg
.	32A	.	32aa
.	32G	.	32bb
.	32A	.	32ccc#
.	32G	.	32ddd
.	32A	.	32eee
=66	=66	=66	=66
8DD	32F#	8d	8fff#
.	32A	.	.
.	32d	.	.
.	32A	.	.
8r	32F#	8r	8r
.	32A	.	.
.	32F#	.	.
.	32A	.	.
8CC#	32G	8e	8a
.	32A	.	.
.	32G	.	.
.	32A	.	.
8DD	32F#	8f#	8f#
.	32A	.	.
.	32d	.	.
.	32A	.	.
8r	32F#	8r	8r
.	32A	.	.
.	32F#	.	.
.	32A	.	.
8CC#	32G	8e	8a
.	32A	.	.
.	32G	.	.
.	32A	.	.
=67	=67	=67	=67
8DD	8F#	8d	8f#
8DD	8d	8A	8f#
8DD	8d	8A	8f#
8DD	8d	8A	8f#
4r	4r	4r	8r
.	.	.	8r
==	==	==	==
*-	*-	*-	*-
!!!RWG1: This file contains only pitch and duration data.
!!!RWG2: Transposing instruments are not transposed.
!!!RWG3: Spines may have incompatible meters.
!!!RWG4: Durations of rests and tied notes may be interpreted.
!!!RWG: Key is interpreted using the Humdrum key tool.
!!!GTL: 6 Quartetti ("Erdödy")
!!!OPT: Fifths
!!!AFT: stage1
!!!END: 1997/04/15
!!!KEY: 1494055083
!!!EMD: Converted from MuseData to Humdrum Dec 16, 2000, by Andreas Kornstaedt using muse2kern.
!!!EMD: Manual editing by Craig Sapp, Nov 2001
